src/utils/icons/main/links/contributors.svg

<svg width="51" height="50" viewBox="0 0 51 50" fill="none" xmlns="http://www.w3.org/2000/svg">
<path d="M25.3335 35C25.3335 40.5228 29.8106 45 35.3335 45C40.8563 45 45.3335 40.5228 45.3335 35C45.3335 29.4772 40.8563 25 35.3335 25H25.3335V35Z" fill="#FFD11A"/>
<path d="M25.3335 15C25.3335 9.47715 20.8563 5 15.3335 5C9.81065 5 5.3335 9.47715 5.3335 15C5.3335 20.5228 9.81065 25 15.3335 25H25.3335V15Z" fill="#FFD11A"/>
<path fill-rule="evenodd" clip-rule="evenodd" d="M35.3335 5C29.8106 5 25.3335 9.47715 25.3335 15V25H35.3335C40.8563 25 45.3335 20.5228 45.3335 15C45.3335 9.47715 40.8563 5 35.3335 5ZM40.3335 15C40.3335 17.7614 38.0949 20 35.3335 20C32.5721 20 30.3335 17.7614 30.3335 15C30.3335 12.2386 32.5721 10 35.3335 10C38.0949 10 40.3335 12.2386 40.3335 15Z" fill="#404040"/>
<path fill-rule="evenodd" clip-rule="evenodd" d="M15.3335 45C20.8563 45 25.3335 40.5228 25.3335 35V25H15.3335C9.81065 25 5.3335 29.4772 5.3335 35C5.3335 40.5228 9.81065 45 15.3335 45ZM20.3335 35C20.3335 37.7614 18.0949 40 15.3335 40C12.5721 40 10.3335 37.7614 10.3335 35C10.3335 32.2386 12.5721 30 15.3335 30C18.0949 30 20.3335 32.2386 20.3335 35Z" fill="#404040"/>
</svg>

<svg xmlns="http://www.w3.org/2000/svg" width="51" height="50" fill="none"><path fill="#FFD11A" d="M25.334 35c0 5.523 4.477 10 10 10s10-4.477 10-10-4.478-10-10-10h-10zM25.334 15c0-5.523-4.478-10-10-10s-10 4.477-10 10 4.477 10 10 10h10z"/><path fill="#404040" fill-rule="evenodd" d="M35.334 5c-5.523 0-10 4.477-10 10v10h10c5.522 0 10-4.477 10-10s-4.478-10-10-10m5 10a5 5 0 1 1-10 0 5 5 0 0 1 10 0M15.334 45c5.522 0 10-4.477 10-10V25h-10c-5.523 0-10 4.477-10 10s4.477 10 10 10m5-10a5 5 0 1 1-10 0 5 5 0 0 1 10 0" clip-rule="evenodd"/></svg>
